app/client/src/widgets/wds/WDSPhoneInputWidget/icon.svg

<svg xmlns="http://www.w3.org/2000/svg" width="15" height="15" fill="none"><path stroke="#364252" stroke-linecap="round" stroke-linejoin="round" d="M7.5 9.5h1m1 0h-1m-1-3 1-1v4"/><path stroke="#364252" stroke-linecap="round" d="M3.5 7.5h2M4.5 8.5v-2"/><path stroke="#364252" stroke-linecap="round" stroke-linejoin="round" d="M12.5 6.5h1m1 0h-1m0 0v8m-1 0h2M14.5 2.5H.5v10h9"/></svg>

<svg width="15" height="15" viewBox="0 0 15 15" fill="none" xmlns="http://www.w3.org/2000/svg">
<path d="M7.5 9.5H8.5M9.5 9.5H8.5M7.5 6.5L8.5 5.5V9.5" stroke="#364252" stroke-linecap="round" stroke-linejoin="round"/>
<path d="M3.5 7.5H5.5" stroke="#364252" stroke-linecap="round"/>
<path d="M4.5 8.5V6.5" stroke="#364252" stroke-linecap="round"/>
<path d="M12.5 6.5H13.5M14.5 6.5H13.5M13.5 6.5V14.5M12.5 14.5H14.5" stroke="#364252" stroke-linecap="round" stroke-linejoin="round"/>
<path d="M14.5 2.5H0.5V12.5H9.5" stroke="#364252" stroke-linecap="round" stroke-linejoin="round"/>
</svg>
